X:1
T:Title
%%score { ( 1 3 ) | ( 2 4 ) }
L:1/8
M:4/2
K:Eb
V:1 treble nm="Grand Piano"
V:3 treble 
V:2 bass 
V:4 bass 
V:1
 z8 z4[Q:1/4=196] B4 | B4 G4 E4 D4 | E2 [B,E]2 [CF]2 F2 G6 G2 |[M:6/4] [FA]4 [EG]2- [EG]2 [DF]4 | %4
[M:2/4] [DB]4 |[M:8/4] B4 G4 E4 D4 | E2 [B,E]2 [CF]2 F2 G6 G2 | F4 =A4 z8 | c4 B2 =A2 B4 G4 | %9
 [EA]2 [EA]2 [CG]2 [CG]2 [F,CF]6 [A,DF]2 |[M:9/4] [G,E]4 [B,DF]2- [B,DF]2 [B,EG]4- [B,EG]2 [CFA]4 | %11
[M:8/4] [B,EG]8 [A,DF]8 |[M:6/4] [G,E]12 |] %13
V:2
 z8 z4 [E,G,E]4 | [E,G,E]4 [E,B,E]4 [E,G,B,]4 [E,F,B,]4 | %2
 [E,G,B,]2 [G,,E,]2 [A,,E,]2 [B,,D,B,]2 [E,B,]6 [E,B,E]2 | %3
[M:6/4] [D,B,]4 [E,B,]2- [E,B,]2 [B,,B,]4 |[M:2/4] [B,,A,]4 | %5
[M:8/4] [E,G,E]4 [E,B,E]4 [E,G,B,]4 [E,F,B,]4 | %6
 [E,G,C]2 [G,,E,]2 [A,,E,]2 [B,,D,B,]2 [E,B,]6 [E,B,E]2 | .[F,B,D]4 .[F,CF]4 [B,,B,]4 [E,G,E]4 | %8
 [E,A,E]4 [E,E]2- [E,_G,E]2 [E,=G,E]4 [E,B,E]4 | [C,A,]2 [C,A,]2 [B,,=E,]2 [B,,E,]2 A,,6 B,,2 | %10
[M:9/4] C,4 B,,2- B,,2 E,4- E,2 A,,4 |[M:8/4] B,,8 B,,8 |[M:6/4] E,12 |] %13
V:3
 x16 | x16 | x16 |[M:6/4] x12 |[M:2/4] x4 |[M:8/4] x16 | x16 | z2 D2 z2 E2 [DB]4 B4 | x16 | x16 | %10
[M:9/4] x18 |[M:8/4] x16 |[M:6/4] x12 |] %13
V:4
 x16 | x16 | x16 |[M:6/4] x12 |[M:2/4] x4 |[M:8/4] x16 | x16 | x16 | z4 .G,4 z8 | x16 | %10
[M:9/4] x18 |[M:8/4] x16 |[M:6/4] x12 |] %13

